!!!COM: Palestrina, Giovanni Perluigi da
!!!OPR: Primi toni
!!!OTL: Agnus I
**kern	**kern	**kern	**kern
*Ibass	*Itenor	*Icalto	*Icant
!Bassus	!Tenor	!Altus	!Cantus
*clefF4	*clefGv2	*clefG2	*clefG2
*k[b-]	*k[b-]	*k[b-]	*k[b-]
*G:dor	*G:dor	*G:dor	*G:dor
*M4/2	*M4/2	*M4/2	*M4/2
=1	=1	=1	=1
0r	0r	0g	0r
=2	=2	=2	=2
0r	0r	1a	1r
.	.	2.b-	[1dd
.	.	4a	.
=3	=3	=3	=3
0r	0r	2g	1dd]
.	.	2f#	.
.	.	2g	1ee
.	.	2a	.
=4	=4	=4	=4
0r	0r	2d	2.ff
.	.	2f	.
.	.	.	4ee
.	.	2g	2dd
.	.	2a	2cc#
=5	=5	=5	=5
0G	0r	2.b-	2dd
.	.	.	4g
.	.	4a	4a
.	.	2g	4b-
.	.	.	4cc
.	.	2f	[2dd
=6	=6	=6	=6
1A	1r	1e	2dd]
.	.	.	2cc#
2.B-	[1d	2d	1dd
.	.	4G	.
4A	.	4A	.
=7	=7	=7	=7
2G	1d]	4B-	0r
.	.	4c	.
2F#	.	1d	.
2G	1e	.	.
2A	.	2c#	.
=8	=8	=8	=8
2D	2.f	2d	0r
2F	.	2a	.
.	4e	.	.
2G	2d	2b-	.
2A	2c#	4a	.
.	.	4g	.
=9	=9	=9	=9
2.B-	2d	2f	0dd
.	4G	1g	.
4A	4A	.	.
2G	4B-	.	.
.	4c	.	.
2D	[2d	2f	.
=10	=10	=10	=10
1A	2d]	2e	1ee
.	2c#	1a	.
2D	1d	.	2.ff
[2B-	.	2f	.
.	.	.	4ee
=11	=11	=11	=11
2B-]	0r	2g	2dd
2A	.	1a	2cc#
2F#	.	.	2dd
2G	.	[2g	2b-
=12	=12	=12	=12
1D	0d	2g]	2a
.	.	2f#	2a
1G	.	1g	1b
=13	=13	=13	=13
1C	1e	1g	2.cc
.	.	.	4b-
1F	2.f	1c	4a
.	.	.	4g
.	.	.	2a
.	4e	.	.
=14	=14	=14	=14
2BB-	2d	1.f	2b-
1F	2c	.	1a
.	2d	.	.
2G	2B-	2d	[2g
=15	=15	=15	=15
1D	1A	2r	2g]
.	.	2a	2f#
1G	1G	1b-	2g
.	.	.	2dd
=16	=16	=16	=16
1C	1r	2g	1ee-
.	.	2g	.
1r	2r	2b-	1dd
.	2d	[2a	.
=17	=17	=17	=17
1r	1e-	4a]	2r
.	.	4g	.
.	.	1g	2g
2r	1d	.	2b-
2D	.	2f#	[2a
=18	=18	=18	=18
1E-	2r	1g	4a]
.	.	.	4g
.	2G	.	1g
1D	2B-	2r	.
.	2A	2a	2f#
=19	=19	=19	=19
1r	4G	1b-	2g
.	4A	.	.
.	4B-	.	2dd
.	4c	.	.
2r	2d	1a	2ff
2A	2c#	.	[2ee
=20	=20	=20	=20
1B-	1d	2r	4ee]
.	.	.	4dd
.	.	2d	1dd
1A	2r	2f	.
.	2A	[2e	2cc#
=21	=21	=21	=21
2r	2B-	4e]	1dd
.	.	4d	.
2D	4A	1d	.
.	4G	.	.
2F	2A	.	2r
2E	2G	2c#	2g
=22	=22	=22	=22
4D	2r	1d	2b-
4E	.	.	.
4F	2d	.	1a
4G	.	.	.
4A	2f	1r	.
4B-	.	.	.
[2c	[2e	.	4g
.	.	.	4f
=23	=23	=23	=23
4c]	4e]	2r	1g
4G	4d	.	.
2B-	1d	2d	.
2.A	.	2f	[1a
.	2c	[2e	.
4G	.	.	.
=24	=24	=24	=24
2F#	2A	4e]	2a]
.	.	4d	.
2G	2B-	1d	2g
1E	1G	.	2r
.	.	2c#	[2gg
=25	=25	=25	=25
1D	1A	2d	2gg]
.	.	2a	2ff
1r	1r	2b	2dd
.	.	2cc	2ee
=26	=26	=26	=26
0r	0r	2a	4ff
.	.	.	4ee
.	.	2.b-	4dd
.	.	.	4cc
.	.	.	2dd
.	.	8a	.
.	.	8g	.
.	.	2f	2a
=27	=27	=27	=27
1r	2r	1g	1b-
.	1g	.	.
2r	.	2.d	1a
[2d	2f	.	.
.	.	4e	.
=28	=28	=28	=28
2d]	2d	2f	0r
2c	2e	2g	.
2A	2f	2c	.
2B	4g	2d	.
.	4f	.	.
=29	=29	=29	=29
4c	4e	1c	0r
4B-	4d	.	.
4A	2.e	.	.
4G	.	.	.
2A	.	2r	.
.	8d	.	.
.	8e	.	.
2F	2f	[2cc	.
=30	=30	=30	=30
2.G	1d	2cc]	2r
.	.	2b-	1gg
4F	.	.	.
2E-	1r	2g	.
2D	.	2a	2ff
=31	=31	=31	=31
1G	1r	2b-	2dd
.	.	4a	2ee
.	.	4g	.
1r	2r	2a	4ff
.	.	.	4ee
.	[2g	[2b-	4dd
.	.	.	4cc
=32	=32	=32	=32
0r	2g]	4b-]	2dd
.	.	4g	.
.	2f	2.a	2a
.	2d	.	1b-
.	.	8g	.
.	.	8f	.
.	2e	2g	.
=33	=33	=33	=33
2r	4f	1d	2a
.	4e	.	.
1G	4d	.	1b-
.	4c	.	.
.	2d	2r	.
2F	2A	[2f	2a
=34	=34	=34	=34
2D	1B-	2f]	2f
2E	.	2e	2g
4F	2A	4c	2a
4E	.	8d	.
.	.	8e	.
4D	[2d	[2f	[2b-
4C	.	.	.
=35	=35	=35	=35
2.BB-	4d]	2f]	4b-]
.	4c	.	4a
.	2B-	2d	1g
4C	.	.	.
1D	1A	1d	.
.	.	.	2f#
=36	=36	=36	=36
[0G	[0G	[0d	[0g
=37	=37	=37	=37
0G]	0G]	0d]	0g]
==	==	==	==
*-	*-	*-	*-
!!!CDT: 1525/^1526/-1594/2/2
!!!OCY: Italia
!!!AGN: Mass (Free)
!!!AST: renaissance, vocal
!!!ASW: Popular Song
!!!PWK: Masses, Book 4
!!!RNB: Cadence finals: D
!!!YOR: Le Opere Complete, v. 10, p. 19
!!!YOO: Rome, Italy: Fratelli Scalera
!!!END: 1992//
!!!EED: John Miller
!!!YEC: Copyright 2000, John Miller
!!!YEN: United States of America
!!!YEM: Rights to all derivative electronic formats reserved.
!!!YEM: Refer to licensing agreement for further details.
!!!YEM: This file must be accompanied by the licensing agreement.
!!!YEM: A copy of the licensing agreement may be found at http://www.music-cog.ohio-state.edu/HumdrumDatabases/Palestrina/license.txt
!!!EMD: converted to Humdrum by Bret Aarden
